X:1
T:Set Am\'ericain
R:reel
C:Th\'eodore Duguay
Z:transcribed to ABC by Debby Knight
M:C|
L:1/8
K:D 
(3ABc|"D"dAFA DAFA | "A"EAEA "D"DABc | "D"dAFA DAFA | dAdf "A"ec (3ABc |
"D"dAFA DAFA | "A"EAEA "D"DABc |"D"dcdf "A"ec (3ABc |1 "D" df"A"ec "D"d2 :|[2 "D"dfec "F#"d2c2|]
|: "Bm"B3c dcde| fefg "F#"fedc | "Bm"BABc dcBA | "Em"GFGA "F#"G2F2 |
"Bm"BFBc dcde| fefg "F#"fedc| "Bm"BABc "F#"dcBA |1 "Bm"Bbfd "Bm"B2 "F#"dc  :| [2 "Bm"Bbfd B2 |]
%%text Roaring Jelly R-155

